X: 18235
T: Humours Of Kinvara, The
R: reel
M: 4/4
K: Gmajor
AD~D2 ADBD|AD~D2 ADcA|BG~G2 BGdG|1 Bdde d2 cB:|2 Bdde d2cA||
Geed cBAG|ceed ~c3d|~e3d efge|1 dBGB d2 cA:|2 dBGB d2 cB||

